dist/images/2_blackboard.svg

<svg id="Layer_1" xmlns="http://www.w3.org/2000/svg" viewBox="0 0 10 10"><style>.st0{fill:#f8f9fa}</style><title>Icons</title><path class="st0" d="M2.3 3.5c.3-.1.6-.2.9-.2.3-.1.7 0 1 .2.3.2.3.3.3.6s-.2.7-.5.8c.5.1.8.4.9.9 0 .3-.1.6-.3.8-.4.3-.8.4-1.2.4h-.8l-.3-3.5zM3 4.9h.4c.5-.1.8-.3.7-.7 0-.4-.3-.6-.8-.5-.3 0-.3 0-.5.1L3 4.9zm0 1.8h.4c.6-.1 1-.3.9-.8 0-.6-.4-.8-.9-.7H3v1.5zm2.3.2v-.7L5 3h.5l.2 1.6c.1-.4.5-.5.8-.6.7-.1 1.2.4 1.2 1.3.1.7-.3 1.4-1 1.5h-.1c-.3.1-.7-.1-.9-.4v.4l-.4.1zm.4-1.1V6c.2.3.4.5.8.5.5-.1.7-.6.6-1.2-.1-.5-.3-.9-.8-.9-.3 0-.6.3-.7.7v.2l.1.5z"/><path class="st0" d="M8 9.2H2C1.3 9.2.8 8.7.8 8V2c0-.7.6-1.3 1.3-1.3H8c.7 0 1.3.6 1.3 1.3v6c-.1.7-.6 1.2-1.3 1.2zM2 1c-.6 0-1 .4-1 1v6c0 .6.4 1 1 1h6c.6 0 1-.4 1-1V2c0-.6-.4-1-1-1H2z"/></svg>

<?xml version="1.0" encoding="utf-8"?>
<!-- Generator: Adobe Illustrator 21.1.0, SVG Export Plug-In . SVG Version: 6.00 Build 0)  -->
<svg version="1.1" id="Layer_1" xmlns="http://www.w3.org/2000/svg" xmlns:xlink="http://www.w3.org/1999/xlink" x="0px" y="0px"
	 viewBox="0 0 10 10" style="enable-background:new 0 0 10 10;" xml:space="preserve">
<style type="text/css">
	.st0{fill:#F8F9FA;}
</style>
<title>Icons</title>
<path class="st0" d="M2.3,3.5c0.3-0.1,0.6-0.2,0.9-0.2c0.3-0.1,0.7,0,1,0.2c0.3,0.2,0.3,0.3,0.3,0.6c0,0.3-0.2,0.7-0.5,0.8l0,0
	C4.5,5,4.8,5.3,4.9,5.8c0,0.3-0.1,0.6-0.3,0.8C4.2,6.9,3.8,7,3.4,7C3.1,7,2.9,7,2.6,7L2.3,3.5z M3,4.9h0.4c0.5-0.1,0.8-0.3,0.7-0.7
	c0-0.4-0.3-0.6-0.8-0.5C3,3.7,3,3.7,2.8,3.8L3,4.9z M3,6.7c0.2,0,0.3,0,0.4,0C4,6.6,4.4,6.4,4.3,5.9c0-0.6-0.4-0.8-0.9-0.7H3L3,6.7z
	"/>
<path class="st0" d="M5.3,6.9c0-0.2,0-0.4,0-0.7L5,3h0.5l0.2,1.6l0,0C5.8,4.2,6.2,4.1,6.5,4c0.7-0.1,1.2,0.4,1.2,1.3
	c0.1,0.7-0.3,1.4-1,1.5H6.6C6.3,6.9,5.9,6.7,5.7,6.4l0,0v0.4L5.3,6.9z M5.7,5.8c0,0.1,0,0.1,0,0.2c0.2,0.3,0.4,0.5,0.8,0.5
	C7,6.4,7.2,5.9,7.1,5.3C7,4.8,6.8,4.4,6.3,4.4c-0.3,0-0.6,0.3-0.7,0.7c0,0.1,0,0.2,0,0.2L5.7,5.8z"/>
<path class="st0" d="M8,9.2H2C1.3,9.2,0.8,8.7,0.8,8V2c0-0.7,0.6-1.3,1.3-1.3H8c0.7,0,1.3,0.6,1.3,1.3V8C9.2,8.7,8.7,9.2,8,9.2z
	 M2,1C1.4,1,1,1.4,1,2V8c0,0.6,0.4,1,1,1H8c0.6,0,1-0.4,1-1V2c0-0.6-0.4-1-1-1C8,1,2,1,2,1z"/>
</svg>
